/* XPM */
static char *result[] = {
/* columns rows colors chars-per-pixel */
"32 32 5 1 ",
"  c #FF0033",
". c #9E5428",
"X c #FF4D71",
"o c #519E28",
"O c None",
/* pixels */
"OOOOOOOOOOOOOOOOOOOOOOOOOOOOOOOO",
"OOOOOOOOOOOOOOOOOOOOOOOOOOOOOOOO",
"OOOOOOOOOOOOOOOOOOOOOOOOOOOOOOOO",
"OOOOOOOOOOOOOOOOOOOOOOOOOOOOOOOO",
"OOOOOOOOOOOOOOOOOOOOOOOOOOOOOOOO",
"OOOOOOOOOOOOOOOOOOOOooooOOOOOOOO",
"OOOOOOOOOOOOooOOOOOoooooOOOOOOOO",
"OOOOOOOOOOOOoooOOOoooooOOOOOOOOO",
"OOOOOOOOOOOOOooO..ooooOOOOOOOOOO",
"OOOOOOOOOOOOOOoo..oooOOOOOOOOOOO",
"OOOOOOOOOOOOOOOo..oOOOOOOOOOOOOO",
"OOOOOOOOOOOOOOOO..OOOOOOOOOOOOOO",
"OOOOOOOOOOOOO   ..   OOOOOOOOOOO",
"OOOOOOOOOOOO  X       OOOOOOOOOO",
"OOOOOOOOOOO   X        OOOOOOOOO",
"OOOOOOOOOOO  X         OOOOOOOOO",
"OOOOOOOOOOO  X         OOOOOOOOO",
"OOOOOOOOOOO  X         OOOOOOOOO",
"OOOOOOOOOOO  X         OOOOOOOOO",
"OOOOOOOOOOO  X         OOOOOOOOO",
"OOOOOOOOOOO  X         OOOOOOOOO",
"OOOOOOOOOOO  X         OOOOOOOOO",
"OOOOOOOOOOO  XX        OOOOOOOOO",
"OOOOOOOOOOOO  X       OOOOOOOOOO",
"OOOOOOOOOOOOO        OOOOOOOOOOO",
"OOOOOOOOOOOOOOOOOOOOOOOOOOOOOOOO",
"OOOOOOOOOOOOOOOOOOOOOOOOOOOOOOOO",
"OOOOOOOOOOOOOOOOOOOOOOOOOOOOOOOO",
"OOOOOOOOOOOOOOOOOOOOOOOOOOOOOOOO",
"OOOOOOOOOOOOOOOOOOOOOOOOOOOOOOOO",
"OOOOOOOOOOOOOOOOOOOOOOOOOOOOOOOO",
"OOOOOOOOOOOOOOOOOOOOOOOOOOOOOOOO"
};
