/* XPM */
static char *result[] = {
/* columns rows colors chars-per-pixel */
"32 32 3 1 ",
"  c #269500",
". c #37D500",
"X c None",
/* pixels */
"XXXXXXXXXXXXXXXXXXXXXXXXXXXXXXXX",
"XXXXXXXXXXXXXXXXXXXXXXXXXXXXXXXX",
"XXXXXXXXXXXXXXXXXXXXXXXXXXXXXXXX",
"XXXXXXXXXXXXXXXXXXXXXXXXXXXXXXXX",
"XXXXXXXXXXXXXXXXXXXXXXXXXXXXXXXX",
"XXXXXXXXXXXXXXXXXXXXXXXXXXXXXXXX",
"XXXXXXXXXXXXXXXXXXXXXXXXXXXXXXXX",
"XXXXXXXXXXXXXXXXXXXXXXXXXXXXXXXX",
"XXXXXXXXXXXXXXXXXXXXXXXXXXXXXXXX",
"XXXXXXXXXXXXXXXXXXXXXXXXXXXXXXXX",
" .   .   .   XXXXXXXXXXXXXXXXXXX",
" .   .   .     XXXXXXXXXXXXXXXXX",
" .   .   .       XXXXXXXXXXXXXXX",
" .   .   .       .XXXXXXXXXXXXXX",
" .   .   .      .. XXXXXXXXXXXXX",
" .   .   .     ..   XXXXXXXXXXXX",
" .   .   .    ..     XXXXXXXXXXX",
" .   .   .   ..      XXXXXXXXXXX",
"XXXXXXXXXX  ..        XXXXXXXXXX",
"XXXXXXXXXXXX.        .XXXXXXXXXX",
"XXXXXXXXXXXXX      ..  XXXXXXXXX",
"XXXXXXXXXXXXXX   ..    XXXXXXXXX",
"XXXXXXXXXXXXXXX..      XXXXXXXXX",
"XXXXXXXXXXXXXXX        XXXXXXXXX",
"XXXXXXXXXXXXXXXX       XXXXXXXXX",
"XXXXXXXXXXXXXXXX       XXXXXXXXX",
"XXXXXXXXXXXXXXXX.......XXXXXXXXX",
"XXXXXXXXXXXXXXXX       XXXXXXXXX",
"XXXXXXXXXXXXXXXX       XXXXXXXXX",
"XXXXXXXXXXXXXXXX       XXXXXXXXX",
"XXXXXXXXXXXXXXXX.......XXXXXXXXX",
"XXXXXXXXXXXXXXXX       XXXXXXXXX"
};
