/* XPM */
static char *result[] = {
/* columns rows colors chars-per-pixel */
"32 32 3 1 ",
"  c #269500",
". c #37D500",
"X c None",
/* pixels */
"XXXXXXXXXXXXXX        XXXXXXXXXX",
"XXXXXXXXXXXXXX........XXXXXXXXXX",
"XXXXXXXXXXXXXX        XXXXXXXXXX",
"XXXXXXXXXXXXXX        XXXXXXXXXX",
"XXXXXXXXXXXXXX        XXXXXXXXXX",
"XXXXXXXXXXXXXX........XXXXXXXXXX",
"XXXXXXXXXXXXXX        XXXXXXXXXX",
"XXXXXXXXXXXXXX        XXXXXXXXXX",
"XXXXXXXXXXXXXX        XXXXXXXXXX",
"XXXXXXXXXXXXXX........XXXXXXXXXX",
"XXXXXXXXXXXXX         XXXXXXXXXX",
"XXXXXXXXXXXXX         XXXXXXXXXX",
"XXXXXXXXXXXX..        XXXXXXXXXX",
"XXXXXXXXXXX  ..      XXXXXXXXXXX",
"XXXXXXXXXX    ..     XXXXXXXXXXX",
"XXXXXXXX .     ..   XXXXXXXXXXXX",
" .   .   .      ..  XXXXXXXXXXXX",
" .   .    .      ..XXXXXXXXXXXXX",
" .   .    .       XXXXXXXXXXXXXX",
" .   .     .     XXXXXXXXXXXXXXX",
" .   .     .    XXXXXXXXXXXXXXXX",
" .   .      . XXXXXXXXXXXXXXXXXX",
" .   .      XXXXXXXXXXXXXXXXXXXX",
"XXXXXXXXXXXXXXXXXXXXXXXXXXXXXXXX",
"XXXXXXXXXXXXXXXXXXXXXXXXXXXXXXXX",
"XXXXXXXXXXXXXXXXXXXXXXXXXXXXXXXX",
"XXXXXXXXXXXXXXXXXXXXXXXXXXXXXXXX",
"XXXXXXXXXXXXXXXXXXXXXXXXXXXXXXXX",
"XXXXXXXXXXXXXXXXXXXXXXXXXXXXXXXX",
"XXXXXXXXXXXXXXXXXXXXXXXXXXXXXXXX",
"XXXXXXXXXXXXXXXXXXXXXXXXXXXXXXXX",
"XXXXXXXXXXXXXXXXXXXXXXXXXXXXXXXX"
};
