/* XPM */
static char *result[] = {
/* columns rows colors chars-per-pixel */
"32 32 5 1 ",
"  c black",
". c #FF2D57",
"X c #269500",
"o c #37D500",
"O c None",
/* pixels */
"OOOOOOOOOOOOOOOOOOOOOOOOOOOOOOOO",
"OOOOOOOOOOOOOOO.O.OOOOOOOOOOOOOO",
"OOOOOOOOOOOOOOOO.OOOOOOOOOOOOOOO",
"OOOOOOOOOOOOOOOO.OOOOOOOOOOOOOOO",
"OOOOOOOOOOOOOOXXXXXOOOOOOOOOOOOO",
"OOOOOOOOOOOOOXXXXXXXOOOOOOOOOOOO",
"OOOOOOOOOOOOXXXXXXXXXOOOOOOOOOOO",
"OOOOOOOOOOOOXX XXX XXOOOOOOOOOOO",
"OOOOOOOOOOOOXX XXX XXOOOOOOOOOOO",
"OOOOOOOOOOOOXXXXXXXXXOOOOOOOOOOO",
"OOOOOOOOOOOOoooooooooOOOOOOOOOOO",
"OOOOOOOOOOOOXXXXXXXXXOOOOOOOOOOO",
"OOOOOOOOOOOOXXXXXXXXXOOOOOOOOOOO",
"OOOOOOOOOOOOXXXXXXXXXOOOOOOOOOOO",
"OOOOOOOOOOOOXXXXXXXXXOOOOOOOOOOO",
"OOOOOOOOOOOOoooooooooOOOOOOOOOOO",
"OOOOOOOOOOOOXXXXXXXXXOOOOOOOOOOO",
"OOOOOOOOOOOOXXXXXXXXXOOOOOOOOOOO",
"OOOOOOOOOOOOXXXXXXXXXOOOOOOOOOOO",
"OOOOOOOOOOOOXXXXXXXXXOOOOOOOOOOO",
"OOOOOOOOOOOOoooooooooOOOOOOOOOOO",
"OOOOOOOOOOOOXXXXXXXXXOOOOOOOOOOO",
"OOOOOOOOOOOOXXXXXXXXXOOOOOOOOOOO",
"OOOOOOOOOOOOXXXXXXXXXOOOOOOOOOOO",
"OOOOOOOOOOOOXXXXXXXXXOOOOOOOOOOO",
"OOOOOOOOOOOOXXXXXXXXXOOOOOOOOOOO",
"OOOOOOOOOOOOoooooooooOOOOOOOOOOO",
"OOOOOOOOOOOOXXXXXXXXXOOOOOOOOOOO",
"OOOOOOOOOOOOXXXXXXXXXOOOOOOOOOOO",
"OOOOOOOOOOOOXXXXXXXXXOOOOOOOOOOO",
"OOOOOOOOOOOOXXXXXXXXXOOOOOOOOOOO",
"OOOOOOOOOOOOoooooooooOOOOOOOOOOO"
};
